Newaita-dark/apps/256/typecatcher.svg

<?xml version="1.0" encoding="UTF-8"?>
<svg xmlns="http://www.w3.org/2000/svg" xmlns:xlink="http://www.w3.org/1999/xlink" width="256pt" height="256pt" viewBox="0 0 256 256" version="1.1">
<defs>
<radialGradient id="radial0" gradientUnits="userSpaceOnUse" cx="450.908936" cy="189.579361" fx="450.908936" fy="189.579361" r="21.166656" gradientTransform="matrix(0.00000139336,-0.62506,-1.125108,-0.000000812309,401.168679,487.593966)">
<stop offset="0" style="stop-color:rgb(0%,0%,0%);stop-opacity:0.313725;"/>
<stop offset="0.222222" style="stop-color:rgb(0%,0%,0%);stop-opacity:0.27451;"/>
<stop offset="1" style="stop-color:rgb(0%,0%,0%);stop-opacity:0;"/>
</radialGradient>
<radialGradient id="radial1" gradientUnits="userSpaceOnUse" cx="450.908936" cy="189.579361" fx="450.908936" fy="189.579361" r="21.166656" gradientTransform="matrix(-0.00000139336,0.62506,1.125108,0.000000812309,-157.728781,-81.388526)">
<stop offset="0" style="stop-color:rgb(0%,0%,0%);stop-opacity:0.313725;"/>
<stop offset="0.222222" style="stop-color:rgb(0%,0%,0%);stop-opacity:0.27451;"/>
<stop offset="1" style="stop-color:rgb(0%,0%,0%);stop-opacity:0;"/>
</radialGradient>
<radialGradient id="radial2" gradientUnits="userSpaceOnUse" cx="450.908936" cy="189.579361" fx="450.908936" fy="189.579361" r="21.166656" gradientTransform="matrix(-0.00000139336,-0.62506,1.125108,-0.000000812309,-157.728781,487.593966)">
<stop offset="0" style="stop-color:rgb(0%,0%,0%);stop-opacity:0.313725;"/>
<stop offset="0.222222" style="stop-color:rgb(0%,0%,0%);stop-opacity:0.27451;"/>
<stop offset="1" style="stop-color:rgb(0%,0%,0%);stop-opacity:0;"/>
</radialGradient>
<radialGradient id="radial3" gradientUnits="userSpaceOnUse" cx="450.908936" cy="189.579361" fx="450.908936" fy="189.579361" r="21.166656" gradientTransform="matrix(0.00000139336,0.62506,-1.125108,0.000000812309,401.168664,-81.38853)">
<stop offset="0" style="stop-color:rgb(0%,0%,0%);stop-opacity:0.313725;"/>
<stop offset="0.222222" style="stop-color:rgb(0%,0%,0%);stop-opacity:0.27451;"/>
<stop offset="1" style="stop-color:rgb(0%,0%,0%);stop-opacity:0;"/>
</radialGradient>
<linearGradient id="linear0" gradientUnits="userSpaceOnUse" x1="255.323059" y1="233.5" x2="255.323044" y2="254.666656" gradientTransform="matrix(0.10688,0,0,0.500048,81.200482,86.3416)">
<stop offset="0" style="stop-color:rgb(0%,0%,0%);stop-opacity:0.27451;"/>
<stop offset="1" style="stop-color:rgb(0%,0%,0%);stop-opacity:0;"/>
</linearGradient>
<linearGradient id="linear1" gradientUnits="userSpaceOnUse" x1="254" y1="191.166672" x2="254" y2="-126.333344" gradientTransform="matrix(0.500048,0,0,0.500048,0,107.510266)">
<stop offset="0" style="stop-color:rgb(69.019608%,74.509804%,77.254902%);stop-opacity:1;"/>
<stop offset="1" style="stop-color:rgb(81.176471%,84.705882%,86.27451%);stop-opacity:1;"/>
</linearGradient>
<linearGradient id="linear2" gradientUnits="userSpaceOnUse" x1="227.541672" y1="244.083328" x2="227.541672" y2="-168.666656" >
<stop offset="0" style="stop-color:rgb(37.647059%,49.019608%,54.509804%);stop-opacity:1;"/>
<stop offset="1" style="stop-color:rgb(47.058824%,56.470588%,61.176471%);stop-opacity:1;"/>
</linearGradient>
</defs>
<g id="surface1">
<path style=" stroke:none;fill-rule:nonzero;fill:url(#radial0);" d="M 190.519531 203.101562 L 211.6875 203.101562 L 211.6875 192.519531 L 190.519531 192.519531 Z M 190.519531 203.101562 "/>
<path style=" stroke:none;fill-rule:nonzero;fill:url(#radial1);" d="M 52.921875 203.101562 L 31.753906 203.101562 L 31.753906 213.6875 L 52.921875 213.6875 Z M 52.921875 203.101562 "/>
<path style=" stroke:none;fill-rule:nonzero;fill:url(#radial2);" d="M 52.921875 203.101562 L 31.753906 203.101562 L 31.753906 192.519531 L 52.921875 192.519531 Z M 52.921875 203.101562 "/>
<path style=" stroke:none;fill-rule:nonzero;fill:url(#radial3);" d="M 190.519531 203.101562 L 211.6875 203.101562 L 211.6875 213.6875 L 190.519531 213.6875 Z M 190.519531 203.101562 "/>
<path style=" stroke:none;fill-rule:nonzero;fill:url(#linear0);" d="M 52.921875 200.457031 L 190.519531 200.457031 L 190.519531 213.6875 L 52.921875 213.6875 Z M 52.921875 200.457031 "/>
<path style=" stroke:none;fill-rule:nonzero;fill:url(#linear1);" d="M 121.613281 44.25 C 80.566406 44.25 47.523438 79.148438 47.523438 122.5 L 47.523438 124.761719 C 47.523438 126.183594 47.558594 127.59375 47.628906 128.996094 C 29.796875 130.140625 15.769531 145.355469 15.769531 164.085938 L 15.769531 167.855469 C 15.769531 187.332031 30.945312 203.015625 49.792969 203.015625 L 79.382812 203.015625 L 79.382812 203.085938 L 190.519531 203.085938 C 219.835938 203.085938 243.441406 179.484375 243.441406 150.164062 C 243.441406 121.273438 220.519531 97.933594 191.792969 97.257812 C 181.894531 66.367188 154.289062 44.25 121.613281 44.25 Z M 121.613281 44.25 "/>
<path style=" stroke:none;fill-rule:nonzero;fill:rgb(98.039216%,98.039216%,98.039216%);fill-opacity:0.588235;" d="M 52.722656 129.011719 C 32.089844 129.011719 15.480469 145.535156 15.480469 166.058594 C 15.480469 166.613281 15.492188 167.164062 15.519531 167.710938 C 16.382812 147.960938 32.648438 132.320312 52.722656 132.320312 C 72.796875 132.320312 89.0625 147.960938 89.929688 167.710938 C 89.953125 167.164062 89.96875 166.613281 89.96875 166.058594 C 89.96875 145.535156 73.355469 129.011719 52.722656 129.011719 Z M 52.722656 129.011719 "/>
<path style=" stroke:none;fill-rule:nonzero;fill:rgb(100%,100%,100%);fill-opacity:0.392157;" d="M 121.613281 44.25 C 80.566406 44.25 47.523438 79.148438 47.523438 122.5 L 47.523438 124.761719 C 47.523438 125.050781 47.527344 125.339844 47.527344 125.628906 C 47.996094 82.707031 80.863281 48.304688 121.613281 48.304688 C 154.289062 48.304688 181.894531 70.425781 191.792969 101.316406 C 219.839844 101.972656 242.355469 124.242188 243.402344 152.191406 C 243.425781 151.519531 243.441406 150.84375 243.441406 150.164062 C 243.441406 121.273438 220.519531 97.933594 191.792969 97.257812 C 181.894531 66.367188 154.289062 44.25 121.613281 44.25 Z M 47.523438 129.003906 C 29.742188 130.203125 15.769531 145.394531 15.769531 164.085938 L 15.769531 167.855469 C 15.769531 167.902344 15.773438 167.949219 15.773438 167.996094 C 15.84375 149.335938 29.84375 134.195312 47.628906 133.054688 C 47.5625 131.710938 47.527344 130.363281 47.523438 129.003906 Z M 47.523438 129.003906 "/>
<path style="fill-rule:nonzero;fill:url(#linear2);stroke-width:3;stroke-linecap:butt;stroke-linejoin:miter;stroke:rgb(12.941177%,12.941177%,12.941177%);stroke-opacity:1;stroke-miterlimit:4;" d="M 201.08236 -72.912006 C 174.98329 -72.912006 153.735319 -54.452831 153.735319 -31.259734 L 153.735319 31.788933 C 153.735319 38.952311 159.516017 44.733009 166.679395 44.733009 C 173.842774 44.733009 179.693778 38.960123 179.693778 31.788933 L 179.693778 14.58745 C 179.693778 9.01767 184.06836 4.643088 189.63814 4.643088 L 212.596886 4.643088 C 218.088549 4.643088 222.541248 9.033293 222.541248 14.58745 L 222.541248 31.788933 C 222.541248 38.960123 228.376629 44.733009 235.485325 44.733009 C 242.648703 44.733009 248.491895 38.960123 248.491895 31.788933 L 248.491895 -31.259734 C 248.491895 -54.452831 227.243924 -72.912006 201.08236 -72.912006 Z M 201.08236 -46.961359 C 205.128849 -46.961359 210.784559 -45.898961 215.1982 -43.703858 C 219.611841 -41.516567 222.627178 -38.438736 222.541248 -34.196953 L 222.541248 -25.572777 C 222.541248 -20.010808 218.072925 -15.558108 212.596886 -15.558108 L 189.63814 -15.558108 C 184.083983 -15.558108 179.693778 -20.002996 179.693778 -25.572777 L 179.693778 -34.173518 C 179.693778 -38.469983 182.709115 -41.547814 187.083697 -43.735105 C 191.458279 -45.914584 197.02806 -46.961359 201.08236 -46.961359 Z M 201.08236 -46.961359 " transform="matrix(0.500048,0,0,0.500048,0,107.510266)"/>
<path style=" stroke:none;fill-rule:nonzero;fill:rgb(0%,0%,0%);fill-opacity:0.235294;" d="M 47.527344 121.574219 C 47.523438 121.882812 47.523438 122.191406 47.523438 122.5 L 47.523438 124.761719 C 47.523438 124.828125 47.523438 124.890625 47.523438 124.953125 C 47.558594 124.949219 47.59375 124.945312 47.628906 124.945312 C 47.574219 123.828125 47.539062 122.703125 47.527344 121.574219 Z M 243.402344 148.136719 C 242.347656 176.507812 219.160156 199.035156 190.519531 199.035156 L 79.382812 199.035156 L 79.382812 198.960938 L 49.792969 198.960938 C 30.988281 198.960938 15.84375 183.355469 15.773438 163.941406 C 15.773438 163.988281 15.769531 164.035156 15.769531 164.085938 L 15.769531 167.855469 C 15.769531 187.332031 30.945312 203.015625 49.792969 203.015625 L 79.382812 203.015625 L 79.382812 203.085938 L 190.519531 203.085938 C 219.835938 203.085938 243.441406 179.484375 243.441406 150.164062 C 243.441406 149.484375 243.425781 148.808594 243.402344 148.136719 Z M 243.402344 148.136719 "/>
<path style=" stroke:none;fill-rule:nonzero;fill:rgb(98.039216%,98.039216%,98.039216%);fill-opacity:0.588235;" d="M 191.839844 97.257812 C 163.253906 97.257812 140.242188 120.863281 140.242188 150.179688 C 140.242188 150.84375 140.253906 151.507812 140.277344 152.164062 C 141.289062 123.773438 163.902344 101.226562 191.839844 101.226562 C 219.777344 101.226562 242.394531 123.773438 243.402344 152.164062 C 243.425781 151.507812 243.441406 150.84375 243.441406 150.179688 C 243.441406 120.863281 220.425781 97.257812 191.839844 97.257812 Z M 191.839844 97.257812 "/>
<path style=" stroke:none;fill-rule:nonzero;fill:rgb(12.941177%,12.941177%,12.941177%);fill-opacity:1;" d="M 121.613281 43.5 C 80.140625 43.5 46.773438 78.769531 46.773438 122.5 L 46.773438 124.765625 C 46.773438 125.960938 46.8125 127.148438 46.863281 128.332031 C 28.980469 129.863281 15.019531 145.238281 15.019531 164.085938 L 15.019531 167.855469 C 15.019531 187.722656 30.527344 203.765625 49.792969 203.765625 L 79.066406 203.765625 C 79.164062 203.8125 79.273438 203.835938 79.382812 203.835938 L 190.519531 203.835938 C 220.238281 203.835938 244.191406 179.886719 244.191406 150.164062 C 244.191406 121.054688 221.207031 97.5 192.332031 96.546875 C 182.207031 65.625 154.453125 43.5 121.613281 43.5 Z M 121.613281 45 C 153.949219 45 181.269531 66.882812 191.078125 97.488281 C 191.175781 97.792969 191.457031 98.003906 191.777344 98.007812 C 220.105469 98.671875 242.691406 121.671875 242.691406 150.164062 C 242.691406 179.082031 219.433594 202.335938 190.519531 202.335938 L 79.699219 202.335938 C 79.601562 202.289062 79.492188 202.265625 79.382812 202.265625 L 49.792969 202.265625 C 31.359375 202.265625 16.519531 186.945312 16.519531 167.855469 L 16.519531 164.085938 C 16.519531 145.730469 30.242188 130.867188 47.675781 129.746094 C 48.085938 129.71875 48.398438 129.371094 48.378906 128.960938 C 48.308594 127.570312 48.273438 126.171875 48.273438 124.765625 L 48.273438 122.5 C 48.273438 79.53125 80.992188 45 121.613281 45 Z M 121.613281 45 "/>
</g>
</svg>

<svg xmlns="http://www.w3.org/2000/svg" width="256pt" height="256pt" viewBox="0 0 256 256"><defs><radialGradient id="a" gradientUnits="userSpaceOnUse" cx="450.909" cy="189.579" fx="450.909" fy="189.579" r="21.167" gradientTransform="matrix(0 -.62506 -1.1251 0 401.169 487.594)"><stop offset="0" stop-opacity=".314"/><stop offset=".222" stop-opacity=".275"/><stop offset="1" stop-opacity="0"/></radialGradient><radialGradient id="b" gradientUnits="userSpaceOnUse" cx="450.909" cy="189.579" fx="450.909" fy="189.579" r="21.167" gradientTransform="matrix(0 .62506 1.1251 0 -157.729 -81.389)"><stop offset="0" stop-opacity=".314"/><stop offset=".222" stop-opacity=".275"/><stop offset="1" stop-opacity="0"/></radialGradient><radialGradient id="c" gradientUnits="userSpaceOnUse" cx="450.909" cy="189.579" fx="450.909" fy="189.579" r="21.167" gradientTransform="matrix(0 -.62506 1.1251 0 -157.729 487.594)"><stop offset="0" stop-opacity=".314"/><stop offset=".222" stop-opacity=".275"/><stop offset="1" stop-opacity="0"/></radialGradient><radialGradient id="d" gradientUnits="userSpaceOnUse" cx="450.909" cy="189.579" fx="450.909" fy="189.579" r="21.167" gradientTransform="matrix(0 .62506 -1.1251 0 401.169 -81.389)"><stop offset="0" stop-opacity=".314"/><stop offset=".222" stop-opacity=".275"/><stop offset="1" stop-opacity="0"/></radialGradient><linearGradient id="e" gradientUnits="userSpaceOnUse" x1="255.323" y1="233.5" x2="255.323" y2="254.667" gradientTransform="matrix(.10688 0 0 .50005 81.2 86.342)"><stop offset="0" stop-opacity=".275"/><stop offset="1" stop-opacity="0"/></linearGradient><linearGradient id="f" gradientUnits="userSpaceOnUse" x1="254" y1="191.167" x2="254" y2="-126.333" gradientTransform="matrix(.50005 0 0 .50005 0 107.51)"><stop offset="0" stop-color="#b0bec5"/><stop offset="1" stop-color="#cfd8dc"/></linearGradient><linearGradient id="g" gradientUnits="userSpaceOnUse" x1="227.542" y1="244.083" x2="227.542" y2="-168.667"><stop offset="0" stop-color="#607d8b"/><stop offset="1" stop-color="#78909c"/></linearGradient></defs><path d="M190.52 203.102h21.167V192.52H190.52zm0 0" fill="url(#a)"/><path d="M52.922 203.102H31.754v10.585h21.168zm0 0" fill="url(#b)"/><path d="M52.922 203.102H31.754V192.52h21.168zm0 0" fill="url(#c)"/><path d="M190.52 203.102h21.167v10.585H190.52zm0 0" fill="url(#d)"/><path d="M52.922 200.457H190.52v13.23H52.922zm0 0" fill="url(#e)"/><path d="M121.613 44.25c-41.047 0-74.09 34.898-74.09 78.25v2.262c0 1.422.036 2.832.106 4.234-17.832 1.145-31.86 16.36-31.86 35.09v3.77c0 19.476 15.176 35.16 34.024 35.16h29.59v.07H190.52c29.316 0 52.921-23.602 52.921-52.922 0-28.89-22.921-52.23-51.648-52.906-9.898-30.89-37.504-53.008-70.18-53.008zm0 0" fill="url(#f)"/><path d="M52.723 129.012c-20.633 0-37.243 16.523-37.243 37.047 0 .554.012 1.105.04 1.652.863-19.75 17.128-35.39 37.203-35.39 20.074 0 36.34 15.64 37.207 35.39.023-.547.039-1.098.039-1.652 0-20.524-16.614-37.047-37.246-37.047zm0 0" fill="#fafafa" fill-opacity=".588"/><path d="M121.613 44.25c-41.047 0-74.09 34.898-74.09 78.25v2.262c0 .289.004.578.004.867.47-42.922 33.336-77.324 74.086-77.324 32.676 0 60.282 22.12 70.18 53.011 28.047.657 50.562 22.926 51.61 50.875.023-.671.038-1.347.038-2.027 0-28.89-22.921-52.23-51.648-52.906-9.898-30.89-37.504-53.008-70.18-53.008zm-74.09 84.754c-17.78 1.2-31.753 16.39-31.753 35.082v3.77c0 .046.003.093.003.14.07-18.66 14.07-33.8 31.856-34.941a87.047 87.047 0 0 1-.106-4.051zm0 0" fill="#fff" fill-opacity=".392"/><path d="M201.082-72.912c-26.099 0-47.347 18.46-47.347 41.652V31.79c0 7.163 5.781 12.944 12.944 12.944 7.164 0 13.015-5.773 13.015-12.944V14.587c0-5.57 4.374-9.944 9.944-9.944h22.959a9.905 9.905 0 0 1 9.944 9.944V31.79c0 7.171 5.836 12.944 12.944 12.944 7.164 0 13.007-5.773 13.007-12.944V-31.26c0-23.193-21.248-41.652-47.41-41.652zm0 25.95c4.047 0 9.703 1.063 14.116 3.258 4.414 2.187 7.43 5.265 7.343 9.507v8.624c0 5.562-4.468 10.015-9.944 10.015h-22.959c-5.554 0-9.944-4.445-9.944-10.015v-8.6c0-4.297 3.015-7.375 7.39-9.562 4.374-2.18 9.944-3.226 13.998-3.226zm0 0" transform="matrix(.50005 0 0 .50005 0 107.51)" fill="url(#g)" stroke-width="3" stroke="#212121"/><path d="M47.527 121.574c-.004.309-.004.617-.004.926v2.453c.036-.004.07-.008.106-.008a87.567 87.567 0 0 1-.102-3.37zm195.875 26.563c-1.054 28.37-24.242 50.898-52.882 50.898H79.383v-.074h-29.59c-18.805 0-33.95-15.606-34.02-35.02 0 .047-.003.094-.003.145v3.77c0 19.476 15.175 35.16 34.023 35.16h29.59v.07H190.52c29.316 0 52.921-23.602 52.921-52.922 0-.68-.015-1.355-.039-2.027zm0 0" fill-opacity=".235"/><path d="M191.84 97.258c-28.586 0-51.598 23.605-51.598 52.922 0 .664.012 1.328.035 1.984 1.012-28.39 23.625-50.937 51.563-50.937 27.937 0 50.555 22.546 51.562 50.937.024-.656.04-1.32.04-1.984 0-29.317-23.016-52.922-51.602-52.922zm0 0" fill="#fafafa" fill-opacity=".588"/><path d="M121.613 43.5c-41.472 0-74.84 35.27-74.84 79v2.266c0 1.195.04 2.382.09 3.566-17.883 1.531-31.843 16.906-31.843 35.754v3.77c0 19.867 15.507 35.91 34.773 35.91h29.273c.098.047.207.07.317.07H190.52c29.718 0 53.671-23.95 53.671-53.672 0-29.11-22.984-52.664-51.859-53.617C182.207 65.625 154.453 43.5 121.613 43.5zm0 1.5c32.336 0 59.657 21.883 69.465 52.488a.746.746 0 0 0 .7.52c28.327.664 50.913 23.664 50.913 52.156 0 28.918-23.257 52.172-52.171 52.172H79.7a.734.734 0 0 0-.317-.07h-29.59c-18.434 0-33.273-15.32-33.273-34.41v-3.77c0-18.356 13.722-33.219 31.156-34.34a.751.751 0 0 0 .703-.785c-.07-1.39-.106-2.79-.106-4.195V122.5c0-42.969 32.72-77.5 73.34-77.5zm0 0" fill="#212121"/></svg>
